X: 063
T: the bonny Lass of Fisher-row
R: reel
M: C|
L: 1/8
Z: 2010 John Chambers <jc:trillian.mit.edu>
B: Abraham Mackintosh "A Collection of Strathspeys, Reels, Jigs &c.", Newcastle, after 1797, p.6
F: http://imslp.info/files/imglnks/usimg/a/a8/IMSLP80796-PMLP164326-Abraham_Mackintosh_coll.pdf
K: C
V: 1
A | GEcG AcGE | CEGE D/D/D DA | GEGc AFAc | BdGB c/c/c c :|
g | ecgc egca | gcec defa | gceg fadf | egde c/c/c c ||
g | ecgc egca | gcec defd | cAFc BdGf | egde c/c/c c |]
V: 2 clef=bass middle=d
z | c2e2 f2ec | c2e2 g2f2 | e2e2 f2f2 | g2G2 c2C :|
z | c2e2 c2ef | e2c2 f2d2 | e2c2 A2B2 | c2G2 c2e2||
    c2e2 c2ef | e2c2 f2d2 | A2A2 G2B2 | c2G2 c2C |]

%%sep 2 1 500

